icons/svg/sparkle.svg

<svg width="24" height="24" viewBox="0 0 24 24" fill="none" xmlns="http://www.w3.org/2000/svg">
<path d="M11.2558 3.56703C11.5221 2.89171 12.4779 2.89171 12.7442 3.56703L14.7915 8.7579C14.8728 8.96407 15.036 9.12728 15.2422 9.20859L20.433 11.2558C21.1083 11.5222 21.1083 12.4779 20.433 12.7443L15.2422 14.7915C15.036 14.8728 14.8728 15.036 14.7915 15.2422L12.7442 20.4331C12.4779 21.1084 11.5221 21.1084 11.2558 20.4331L9.20853 15.2422C9.12722 15.036 8.96401 14.8728 8.75783 14.7915L3.56697 12.7443C2.89165 12.4779 2.89165 11.5222 3.56697 11.2558L8.75783 9.20859C8.96401 9.12728 9.12722 8.96407 9.20853 8.7579L11.2558 3.56703Z" stroke="currentColor" stroke-width="1.5" stroke-linecap="round" stroke-linejoin="round"/>
<circle cx="5.25" cy="5.25" r="1.25" fill="currentColor"/>
<circle cx="19" cy="19" r="1" fill="currentColor"/>
</svg>

<svg xmlns="http://www.w3.org/2000/svg" width="24" height="24" fill="none" viewBox="0 0 24 24"><path stroke="currentColor" stroke-linecap="round" stroke-linejoin="round" stroke-width="1.5" d="M11.256 3.567c.266-.675 1.222-.675 1.488 0l2.047 5.19a.8.8 0 0 0 .451.452l5.191 2.047c.675.266.675 1.222 0 1.488l-5.19 2.047a.8.8 0 0 0-.452.451l-2.047 5.191c-.266.675-1.222.675-1.488 0l-2.047-5.19a.8.8 0 0 0-.451-.452l-5.191-2.047c-.675-.266-.675-1.222 0-1.488l5.19-2.047a.8.8 0 0 0 .452-.451z"/><circle cx="5.25" cy="5.25" r="1.25" fill="currentColor"/><circle cx="19" cy="19" r="1" fill="currentColor"/></svg>
